X:1
T: Blind Norry's -- Reel
R: reel
M: 2/4
L: 1/16
B: Ryan's Mammoth Collection
Z: Contributed by Ray Davies,  ray:davies99.freeserve.co.uk
K: C
v(g2{a}g)^f gece|gage fdde|(g2{a}g)^f gece|(fa)gf ecc2|
(g2{a}g)^f gece|gage fddf|efge agfe|fagf ecc2 ::
GcEc GcBc|GcBc AFD2|GcEc GcBc|Bagf ecc2|
GcBc GcBc|GcBc AFD2|agfe fedc|Bagf ecc2:|
